X: 1
T: Larkin's Beehives
M: 4/4
L: 1/8
R: reel
K: Gmaj
BA B/c/d edge|dzBG AGE2|BA B/c/d edge|dBAc BGGz|
BA B/c/d edge|dcBG AGEd|BG~G2 ABGB|dBAc BGGA:|
BA B/c/d eg~g2|eaaf gedB|GBdB eBdB|AcBG AGEG|
BA B/c/d eg~g2|eaaf gedc|BG~G2 ABGB|dBAc BGGz:|
